X:19
T: Csillagok, csillagok
O: (Zala)
Q: "Tempo guisto" 1/4=125
M:4/4
L:1/4
K:Eb
c/c/d/c/ G<E | c>B G<F | C2 C z | 
e/d/c/d/ B<B | c>d e<c | G2 G z | 
e/d/c/d/ B<B | c>d e<c | G2 E z | 
c/c/d/c/ G<E | c>B G<F | C2 C z | 

